!!!!SEGMENT: pl-wnifc--13846--060_anonim--piesni-polskie-i-ruskie-ludu-galicyjskiego-60-oj-ty-horo-kamonnaja.krn
!!!kernsource:
!!!cenid: 18xx:3282
!!!COM: Anonim
!!!COM-rismID: pe30004985
!!!CDT:
!!!CNT:
!!!GTL: Pieśni polskie i ruskie ludu galicyjskiego
!!!OTL: 60. Oj ty horo kamonnaja
!!!OMV: 060
!!!PDT: 1833
!!!AGN:
!!!SMS-siglum: PL-Wnifc
!!!SMS-shelfmark: 13846
!!!SMS-shelfwork: 001-060 G
!!!SMS-variant:
!!!SMS-altvar:
!!!NIFC-rismSourceID: 1001036701
!!!NIFC-rismChildID: 1001037069
!!!NIFC-islandoraID: nifc:210326
!!!URL-pdf-islandora: https://repozytorium.nifc.pl/islandora/object/nifc%3A210326/datastream/PDF/view
!!!URL-scan:
!!!IIIF:
!!!ONB-nifc:
!!!OMD: Allegretto Kołomyik:
!!!AIN: 1 piano 1 vox
!!!key: g
**kern	**kern	**dynam	**kern	**text
*part2	*part2	*part2	*part1	*part1
*staff3	*staff2	*	*staff1	*staff1
*I"Fortepian	*I"Fortepian	*	*I"Głos	*
*Ipiano	*Ipiano	*	*Ivox	*
*ICklav	*ICklav	*	*ICvox	*
*IGacmp	*IGacmp	*	*IGsolo	*
*clefF4	*clefG2	*	*clefG2	*
*k[b-e-]	*k[b-e-]	*	*k[b-e-]	*
*g:	*g:	*	*g:	*
*M2/4	*M2/4	*	*M2/4	*
*>[A,B,B]	*>[A,B,B]	*	*>[A,B,B]	*
=1	=1	=1	=1	=1
*>A	*>A	*	*>A	*
!	!	!LO:DY:b=2:rj	!LO:TX:a:t=D.b.Д.I.	!
8DD/L 8GG/ 8BB-/	8dd\L	f	8dd\	Oj
8D\	8gg\J	.	8gg\	ty
!	!	!LO:DY:b=2:rj	!	!
8DD/ 8GG/ 8BB-/	(16gg\LL	f	(16gg\LL	ho-
.	16ff#X\J)	.	16ff#X\JJ)	.
8D\J	8gg\J	.	8gg\	ro
=2	=2	=2	=2	=2
8DD/L 8GG/ 8BB-/	8gg\L	.	8gg\	ka-
8D\	8gg\J	.	8gg\	-mon-
8DD/ 8GG/ 8BB-/	(16gg\LL	.	(16gg\LL	-na-
.	16ff#X\J)	.	16ff#X\JJ)	.
8D\J	8gg\J	.	8gg\	ja,
!!LO:LB:g=original
=3	=3	=3	=3	=3
8DD/L 8GG/ 8BB-/	8bb-\L	.	8bb-\	czom
8D\	(16bb-\L	.	(16bb-\LL	sia
.	16aa\JJ)	.	16aa\JJ)	.
8DD/ 8GG/ 8BB-/	8gg\L	.	8gg\	ne
8D\J	8gg\J	.	8gg\	tu-
=4	=4	=4	=4	=4
8DD/L 8FF/ 8AA/	(8.ffn\L	.	(8.ffn\L	-pa-
8D\	.	.	.	.
.	32een\LL)	.	32een\LL	.
.	32dd\JJ	.	32dd\JJ)	.
8DD/ 8FF/ 8AA/	8dd\J	.	8dd\J	jesz?
8D\J	8ryy	.	8ryy	.
=5!|:	=5!|:	=5!|:	=5!|:	=5!|:
*>B	*>B	*	*>B	*
*tremolo	*	*	*	*
(8DD/^>L 8AA/	8ff\	.	8ff\	Oj
8D/	8a\ 8ff\	.	8ff\	ska-
!	!LO:SIC:v:n=2:s=8een\	!	!	!
8DD/ 8AA/	(8a\L 8ee-\	.	8een\	-ży-
8D/J)	8a\J) 8ff\	.	8ff\	-my
*Xtremolo	*	*	*	*
!!LO:LB:g=original
=6	=6	=6	=6	=6
8DD/L 8AA/	8a\L 8dd\	.	8dd\	diw-
8D\	8a\J 8dd\	.	8dd\	-cze
8DD/ 8AA/	(16dd\LL	.	(16dd\LL	praw-
.	16a/J	.	16a/J	.
8D\J	8dd\J)	.	8dd\J)	du,
=7	=7	=7	=7	=7
8DD/L 8AA/	8a\L 8ff\	.	8ff\	w_kim
8D\	8a\J 8ff\	.	8ff\	ty
8DD/ 8AA/	(8a\L 8ee-\	.	8ee-\	sia
8D\J	8a\J) 8ff\	.	8ff\	ko-
=8	=8	=8	=8	=8
8DD/L 8AA/	8.dd\L	.	8.dd\L	-cha-
8D\	.	.	.	.
.	16a\Jk	.	16a\Jk	.
8DD/ 8AA/	4dd\	.	8dd\	jesz.
8D\J	.	.	8ryy	.
!!LO:PB:g=original
==	==	==	==	==
*-	*-	*-	*-	*-
!!!system-decoration: s1,{(s2,s3)}
!!!RDF**kern: < = below
!!!RDF**kern: > = above
!!!ENC: Marta Chmielewska
!!!END: 2021-11-10
!!!YEC: Copyright 2022 Narodowy Instytut Fryderyka Chopina (https://polishscores.org)
!!!YEM: License CC-BY-4.0 (https://creativecommons.org/licenses/by/4.0)
